X: 12327
T: Faithful Friend, The
R: hornpipe
M: 4/4
K: Dmajor
|:(AG)|FD D2 DEFG|A^GAB =cBA^c|dcde fged|cABc dcAG|
FDDE FEFG|A^GAB =cBA^c|dcde fged|cABc d2:|
|:(de)|fd d2 dfaf|gfed cdeg|fedc dfaf|gece dcde|
fd d2 dfaf|gfed cdeg|fgaf gbag|fgec d2:|
|:(de)|fged efec|dcAB =cAGA|FD D2 DEFG|ABcA d^cde|
fdef dcAB|=cBcA GFEF|Ddd^c defa|gece d2:|

